svg/black/zel.svg

<svg height="32" viewBox="0 0 32 32" width="32" xmlns="http://www.w3.org/2000/svg"><path d="m16 32c-8.836556 0-16-7.163444-16-16s7.163444-16 16-16 16 7.163444 16 16-7.163444 16-16 16zm-11-16.3846154v4.8461539l4.49462366 2.5384615 4.49462364-2.5384615v-4.8461539l-4.49462364-2.5384615zm13.0107527 0v4.8461539l4.4946236 2.5384615 4.4946237-2.5384615v-4.8461539l-4.4946237-2.5384615zm-.4731183 4.2101842v-4.5947996l4.0215054-2.271255v-1.728745l-5.5985663-3.2307692-5.5985663 3.2307692v1.6842106l4.1003584 2.3157894v4.6381365l1.4982079.823402z"/></svg>

<svg xmlns="http://www.w3.org/2000/svg" width="32" height="32" viewBox="0 0 32 32">
  <path d="M16,32 C7.163444,32 0,24.836556 0,16 C0,7.163444 7.163444,0 16,0 C24.836556,0 32,7.163444 32,16 C32,24.836556 24.836556,32 16,32 Z M5,15.6153846 L5,20.4615385 L9.49462366,23 L13.9892473,20.4615385 L13.9892473,15.6153846 L9.49462366,13.0769231 L5,15.6153846 Z M18.0107527,15.6153846 L18.0107527,20.4615385 L22.5053763,23 L27,20.4615385 L27,15.6153846 L22.5053763,13.0769231 L18.0107527,15.6153846 Z M17.5376344,19.8255688 L17.5376344,15.2307692 L21.5591398,12.9595142 L21.5591398,11.2307692 L15.9605735,8 L10.3620072,11.2307692 L10.3620072,12.9149798 L14.4623656,15.2307692 L14.4623656,19.8689057 L15.9605735,20.6923077 L17.5376344,19.8255688 Z"/>
</svg>
